X: 6
T: Soldier's Joy
R: hornpipe
M: 4/4
L: 1/8
K: Dmaj
|: FG |AFDF AFDF | A2 d2 d2 cB | A2 AB AFDF | E2 A2 A2 FG |
AFDF AFDF | A2 d2 d2 e2 | fafd egec | d2 f2 d2 :|
|: z2 |fede f2 f2 | edcd e2 e2 | fede f2 f2 | edcB A2 z2 |
fede f2 f2 | edcd e2 e2 | fafd egec | d2 f2 d2 :|


Tune 1356	Setting 1356

